static/img/kroki/ab2d7903897ef1a6cf147cefba572df9.svg

<?xml version="1.0" encoding="us-ascii" standalone="no"?><svg xmlns="http://www.w3.org/2000/svg" xmlns:xlink="http://www.w3.org/1999/xlink" contentStyleType="text/css" height="705px" preserveAspectRatio="none" style="width:1225px;height:705px;" version="1.1" viewBox="0 0 1225 705" width="1225px" zoomAndPan="magnify"><defs/><g><!--class aws_eks_cluster--><g id="elem_aws_eks_cluster"><rect codeLine="23" fill="#3D176E" height="39.7891" id="aws_eks_cluster" rx="2.5" ry="2.5" style="stroke:#000D19;stroke-width:0.5;" width="177" x="7" y="660.14"/><ellipse cx="22" cy="680.0345" fill="#ADD1B2" rx="11" ry="11" style="stroke:#181818;stroke-width:1.0;"/><path d="M24.9688,685.6752 Q24.3906,685.972 23.75,686.1127 Q23.1094,686.2689 22.4063,686.2689 Q19.9063,686.2689 18.5781,684.6283 Q17.2656,682.972 17.2656,679.847 Q17.2656,676.722 18.5781,675.0658 Q19.9063,673.4095 22.4063,673.4095 Q23.1094,673.4095 23.75,673.5658 Q24.4063,673.722 24.9688,674.0189 L24.9688,676.7377 Q24.3438,676.1595 23.75,675.8939 Q23.1563,675.6127 22.5313,675.6127 Q21.1875,675.6127 20.5,676.6908 Q19.8125,677.7533 19.8125,679.847 Q19.8125,681.9408 20.5,683.0189 Q21.1875,684.0814 22.5313,684.0814 Q23.1563,684.0814 23.75,683.8158 Q24.3438,683.5345 24.9688,682.9564 L24.9688,685.6752 Z " fill="#000000"/><text fill="#D9B8FF" font-family="Helvetica" font-size="17" lengthAdjust="spacing" textLength="135" x="41" y="685.9198">aws_eks_cluster</text></g><!--class azure_container_service_managed_cluster--><g id="elem_azure_container_service_managed_cluster"><rect codeLine="26" fill="#3D176E" height="39.7891" id="azure_container_service_managed_cluster" rx="2.5" ry="2.5" style="stroke:#000D19;stroke-width:0.5;" width="395" x="219" y="660.14"/><ellipse cx="234" cy="680.0345" fill="#ADD1B2" rx="11" ry="11" style="stroke:#181818;stroke-width:1.0;"/><path d="M236.9688,685.6752 Q236.3906,685.972 235.75,686.1127 Q235.1094,686.2689 234.4063,686.2689 Q231.9063,686.2689 230.5781,684.6283 Q229.2656,682.972 229.2656,679.847 Q229.2656,676.722 230.5781,675.0658 Q231.9063,673.4095 234.4063,673.4095 Q235.1094,673.4095 235.75,673.5658 Q236.4063,673.722 236.9688,674.0189 L236.9688,676.7377 Q236.3438,676.1595 235.75,675.8939 Q235.1563,675.6127 234.5313,675.6127 Q233.1875,675.6127 232.5,676.6908 Q231.8125,677.7533 231.8125,679.847 Q231.8125,681.9408 232.5,683.0189 Q233.1875,684.0814 234.5313,684.0814 Q235.1563,684.0814 235.75,683.8158 Q236.3438,683.5345 236.9688,682.9564 L236.9688,685.6752 Z " fill="#000000"/><text fill="#D9B8FF" font-family="Helvetica" font-size="17" lengthAdjust="spacing" textLength="353" x="253" y="685.9198">azure_container_service_managed_cluster</text></g><!--class digitalocean_kubernetes_cluster--><g id="elem_digitalocean_kubernetes_cluster"><rect codeLine="29" fill="#3D176E" height="39.7891" id="digitalocean_kubernetes_cluster" rx="2.5" ry="2.5" style="stroke:#000D19;stroke-width:0.5;" width="311" x="649" y="660.14"/><ellipse cx="664" cy="680.0345" fill="#ADD1B2" rx="11" ry="11" style="stroke:#181818;stroke-width:1.0;"/><path d="M666.9688,685.6752 Q666.3906,685.972 665.75,686.1127 Q665.1094,686.2689 664.4063,686.2689 Q661.9063,686.2689 660.5781,684.6283 Q659.2656,682.972 659.2656,679.847 Q659.2656,676.722 660.5781,675.0658 Q661.9063,673.4095 664.4063,673.4095 Q665.1094,673.4095 665.75,673.5658 Q666.4063,673.722 666.9688,674.0189 L666.9688,676.7377 Q666.3438,676.1595 665.75,675.8939 Q665.1563,675.6127 664.5313,675.6127 Q663.1875,675.6127 662.5,676.6908 Q661.8125,677.7533 661.8125,679.847 Q661.8125,681.9408 662.5,683.0189 Q663.1875,684.0814 664.5313,684.0814 Q665.1563,684.0814 665.75,683.8158 Q666.3438,683.5345 666.9688,682.9564 L666.9688,685.6752 Z " fill="#000000"/><text fill="#D9B8FF" font-family="Helvetica" font-size="17" lengthAdjust="spacing" textLength="269" x="683" y="685.9198">digitalocean_kubernetes_cluster</text></g><!--class gcp_container_cluster--><g id="elem_gcp_container_cluster"><rect codeLine="32" fill="#3D176E" height="39.7891" id="gcp_container_cluster" rx="2.5" ry="2.5" style="stroke:#000D19;stroke-width:0.5;" width="223" x="995" y="660.14"/><ellipse cx="1010" cy="680.0345" fill="#ADD1B2" rx="11" ry="11" style="stroke:#181818;stroke-width:1.0;"/><path d="M1012.9688,685.6752 Q1012.3906,685.972 1011.75,686.1127 Q1011.1094,686.2689 1010.4063,686.2689 Q1007.9063,686.2689 1006.5781,684.6283 Q1005.2656,682.972 1005.2656,679.847 Q1005.2656,676.722 1006.5781,675.0658 Q1007.9063,673.4095 1010.4063,673.4095 Q1011.1094,673.4095 1011.75,673.5658 Q1012.4063,673.722 1012.9688,674.0189 L1012.9688,676.7377 Q1012.3438,676.1595 1011.75,675.8939 Q1011.1563,675.6127 1010.5313,675.6127 Q1009.1875,675.6127 1008.5,676.6908 Q1007.8125,677.7533 1007.8125,679.847 Q1007.8125,681.9408 1008.5,683.0189 Q1009.1875,684.0814 1010.5313,684.0814 Q1011.1563,684.0814 1011.75,683.8158 Q1012.3438,683.5345 1012.9688,682.9564 L1012.9688,685.6752 Z " fill="#000000"/><text fill="#D9B8FF" font-family="Helvetica" font-size="17" lengthAdjust="spacing" textLength="181" x="1029" y="685.9198">gcp_container_cluster</text></g><!--class managed_kubernetes_cluster_provider--><g id="elem_managed_kubernetes_cluster_provider"><rect codeLine="35" fill="#3D176E" height="100.3828" id="managed_kubernetes_cluster_provider" rx="2.5" ry="2.5" style="stroke:#000D19;stroke-width:0.5;" width="366" x="427.5" y="438.76"/><ellipse cx="442.5" cy="458.6545" fill="#ADD1B2" rx="11" ry="11" style="stroke:#181818;stroke-width:1.0;"/><path d="M445.4688,464.2952 Q444.8906,464.592 444.25,464.7327 Q443.6094,464.8889 442.9063,464.8889 Q440.4063,464.8889 439.0781,463.2483 Q437.7656,461.592 437.7656,458.467 Q437.7656,455.342 439.0781,453.6858 Q440.4063,452.0295 442.9063,452.0295 Q443.6094,452.0295 444.25,452.1858 Q444.9063,452.342 445.4688,452.6389 L445.4688,455.3577 Q444.8438,454.7795 444.25,454.5139 Q443.6563,454.2327 443.0313,454.2327 Q441.6875,454.2327 441,455.3108 Q440.3125,456.3733 440.3125,458.467 Q440.3125,460.5608 441,461.6389 Q441.6875,462.7014 443.0313,462.7014 Q443.6563,462.7014 444.25,462.4358 Q444.8438,462.1545 445.4688,461.5764 L445.4688,464.2952 Z " fill="#000000"/><text fill="#D9B8FF" font-family="Helvetica" font-size="17" lengthAdjust="spacing" textLength="324" x="461.5" y="464.5398">managed_kubernetes_cluster_provider</text><line style="stroke:#000D19;stroke-width:0.5;" x1="428.5" x2="792.5" y1="478.5491" y2="478.5491"/><text fill="#D9B8FF" font-family="sans-serif" font-size="14" font-weight="bold" lengthAdjust="spacing" textLength="70" x="438.5" y="500.5442">endpoint</text><text fill="#D9B8FF" font-family="sans-serif" font-size="14" lengthAdjust="spacing" textLength="48" x="508.5" y="500.5442">: string</text><text fill="#D9B8FF" font-family="sans-serif" font-size="14" font-weight="bold" lengthAdjust="spacing" textLength="59" x="438.5" y="526.8411">version</text><text fill="#D9B8FF" font-family="sans-serif" font-size="14" lengthAdjust="spacing" textLength="48" x="497.5" y="526.8411">: string</text></g><!--class resource--><g id="elem_resource"><rect codeLine="39" fill="#3D176E" height="310.7578" id="resource" rx="2.5" ry="2.5" style="stroke:#000D19;stroke-width:0.5;" width="227" x="497" y="7"/><ellipse cx="565.75" cy="26.8945" fill="#ADD1B2" rx="11" ry="11" style="stroke:#181818;stroke-width:1.0;"/><path d="M568.7188,32.5352 Q568.1406,32.832 567.5,32.9727 Q566.8594,33.1289 566.1563,33.1289 Q563.6563,33.1289 562.3281,31.4883 Q561.0156,29.832 561.0156,26.707 Q561.0156,23.582 562.3281,21.9258 Q563.6563,20.2695 566.1563,20.2695 Q566.8594,20.2695 567.5,20.4258 Q568.1563,20.582 568.7188,20.8789 L568.7188,23.5977 Q568.0938,23.0195 567.5,22.7539 Q566.9063,22.4727 566.2813,22.4727 Q564.9375,22.4727 564.25,23.5508 Q563.5625,24.6133 563.5625,26.707 Q563.5625,28.8008 564.25,29.8789 Q564.9375,30.9414 566.2813,30.9414 Q566.9063,30.9414 567.5,30.6758 Q568.0938,30.3945 568.7188,29.8164 L568.7188,32.5352 Z " fill="#000000"/><text fill="#D9B8FF" font-family="Helvetica" font-size="17" lengthAdjust="spacing" textLength="71" x="591.25" y="32.7798">resource</text><line style="stroke:#000D19;stroke-width:0.5;" x1="498" x2="723" y1="46.7891" y2="46.7891"/><text fill="#D9B8FF" font-family="sans-serif" font-size="14" font-weight="bold" lengthAdjust="spacing" textLength="29" x="508" y="68.7842">age</text><text fill="#D9B8FF" font-family="sans-serif" font-size="14" lengthAdjust="spacing" textLength="66" x="537" y="68.7842">: duration</text><text fill="#D9B8FF" font-family="sans-serif" font-size="14" font-weight="bold" lengthAdjust="spacing" textLength="43" x="508" y="95.0811">atime</text><text fill="#D9B8FF" font-family="sans-serif" font-size="14" lengthAdjust="spacing" textLength="70" x="551" y="95.0811">: datetime</text><text fill="#D9B8FF" font-family="sans-serif" font-size="14" font-weight="bold" lengthAdjust="spacing" textLength="43" x="508" y="121.3779">ctime</text><text fill="#D9B8FF" font-family="sans-serif" font-size="14" lengthAdjust="spacing" textLength="70" x="551" y="121.3779">: datetime</text><text fill="#D9B8FF" font-family="sans-serif" font-size="14" font-weight="bold" lengthAdjust="spacing" textLength="14" x="508" y="147.6748">id</text><text fill="#D9B8FF" font-family="sans-serif" font-size="14" lengthAdjust="spacing" textLength="48" x="522" y="147.6748">: string</text><text fill="#D9B8FF" font-family="sans-serif" font-size="14" font-weight="bold" lengthAdjust="spacing" textLength="33" x="508" y="173.9717">kind</text><text fill="#D9B8FF" font-family="sans-serif" font-size="14" lengthAdjust="spacing" textLength="48" x="541" y="173.9717">: string</text><text fill="#D9B8FF" font-family="sans-serif" font-size="14" font-weight="bold" lengthAdjust="spacing" textLength="90" x="508" y="200.2686">last_access</text><text fill="#D9B8FF" font-family="sans-serif" font-size="14" lengthAdjust="spacing" textLength="66" x="598" y="200.2686">: duration</text><text fill="#D9B8FF" font-family="sans-serif" font-size="14" font-weight="bold" lengthAdjust="spacing" textLength="90" x="508" y="226.5654">last_update</text><text fill="#D9B8FF" font-family="sans-serif" font-size="14" lengthAdjust="spacing" textLength="66" x="598" y="226.5654">: duration</text><text fill="#D9B8FF" font-family="sans-serif" font-size="14" font-weight="bold" lengthAdjust="spacing" textLength="48" x="508" y="252.8623">mtime</text><text fill="#D9B8FF" font-family="sans-serif" font-size="14" lengthAdjust="spacing" textLength="70" x="556" y="252.8623">: datetime</text><text fill="#D9B8FF" font-family="sans-serif" font-size="14" font-weight="bold" lengthAdjust="spacing" textLength="43" x="508" y="279.1592">name</text><text fill="#D9B8FF" font-family="sans-serif" font-size="14" lengthAdjust="spacing" textLength="48" x="551" y="279.1592">: string</text><text fill="#D9B8FF" font-family="sans-serif" font-size="14" font-weight="bold" lengthAdjust="spacing" textLength="34" x="508" y="305.4561">tags</text><text fill="#D9B8FF" font-family="sans-serif" font-size="14" lengthAdjust="spacing" textLength="171" x="542" y="305.4561">: dictionary[string, string]</text></g><!--reverse link managed_kubernetes_cluster_provider to aws_eks_cluster--><g id="link_managed_kubernetes_cluster_provider_aws_eks_cluster"><path codeLine="51" d="M458.2928,545.8336 C351.3028,585.1136 224.58,631.64 148.29,659.65 " fill="none" id="managed_kubernetes_cluster_provider-backto-aws_eks_cluster" style="stroke:#FFAF37;stroke-width:2.0;"/><polygon fill="none" points="475.19,539.63,456.2249,540.2012,460.3607,551.466,475.19,539.63" style="stroke:#FFAF37;stroke-width:2.0;"/></g><!--reverse link managed_kubernetes_cluster_provider to azure_container_service_managed_cluster--><g id="link_managed_kubernetes_cluster_provider_azure_container_service_managed_cluster"><path codeLine="52" d="M546.6389,552.1926 C506.2189,591.5826 464.82,631.94 436.15,659.89 " fill="none" id="managed_kubernetes_cluster_provider-backto-azure_container_service_managed_cluster" style="stroke:#FFAF37;stroke-width:2.0;"/><polygon fill="none" points="559.53,539.63,542.4514,547.8956,550.8264,556.4897,559.53,539.63" style="stroke:#FFAF37;stroke-width:2.0;"/></g><!--reverse link managed_kubernetes_cluster_provider to digitalocean_kubernetes_cluster--><g id="link_managed_kubernetes_cluster_provider_digitalocean_kubernetes_cluster"><path codeLine="53" d="M674.3611,552.1926 C714.7811,591.5826 756.18,631.94 784.85,659.89 " fill="none" id="managed_kubernetes_cluster_provider-backto-digitalocean_kubernetes_cluster" style="stroke:#FFAF37;stroke-width:2.0;"/><polygon fill="none" points="661.47,539.63,670.1736,556.4897,678.5486,547.8956,661.47,539.63" style="stroke:#FFAF37;stroke-width:2.0;"/></g><!--reverse link managed_kubernetes_cluster_provider to gcp_container_cluster--><g id="link_managed_kubernetes_cluster_provider_gcp_container_cluster"><path codeLine="54" d="M757.6393,546.0417 C860.6793,585.3217 982.19,631.64 1055.66,659.65 " fill="none" id="managed_kubernetes_cluster_provider-backto-gcp_container_cluster" style="stroke:#FFAF37;stroke-width:2.0;"/><polygon fill="none" points="740.82,539.63,755.5021,551.6482,759.7766,540.4353,740.82,539.63" style="stroke:#FFAF37;stroke-width:2.0;"/></g><!--reverse link resource to managed_kubernetes_cluster_provider--><g id="link_resource_managed_kubernetes_cluster_provider"><path codeLine="55" d="M610.5,336.06 C610.5,379.65 610.5,405.98 610.5,438.42 " fill="none" id="resource-backto-managed_kubernetes_cluster_provider" style="stroke:#FFAF37;stroke-width:2.0;"/><polygon fill="none" points="610.5,318.06,604.5,336.06,616.5,336.06,610.5,318.06" style="stroke:#FFAF37;stroke-width:2.0;"/></g><!--SRC=[bPDDRzf048Rl_XKhvOQA18rQGjHBYbIrbwXgSgigQzWTcvNjNMjs329j_tjsSK2BRGBSh7UUUUV3EokjK61LyrPKM2sHNE8ARMeWgCG3aTqiR6b9t6GPPBUpRl2RDNmMU8GAnNSiryXQGfTuNcbP67HEV8n2Nq4METd6gDQU2Opp8JGSKOiId7jW9hri6ADcr7nvbsLTicjwSwkciy_Omomff3TaCfcewRoBd2trxjm7uac_e9Z6ItkqZBqsUoLsrBjT1Y9giZVeFdwonv-Wb3Qv-1HflzgUo20TwKyhK7OJw0nA5vTnZ8IMjpKkUbFX_4vbiq7unoauaM5r0ZOknSAbicn2alYR9F_tePU6C9L-DD2-pzGXhRN4j083EQgX5ALppL1QYM3Iel57O91nq3sNTUGz0EpBz6tIckpQNrl0HoCqghRQy6Xqx-SclpilhltvQMiYRMzBw6n34dUvla10L4F07WyAwwhLW35yUqqEQ5eTrVERFnPyBKv1Id-DdGgxI5C7hqwa6gXZe9KEnWnvwwXbI0FQ_cvZ7zwOFtxKItRtvTzuFEx-_sioBtiULpYUUJrNE0q-hkJmwrle0hla5G00]--></g></svg>

<svg xmlns="http://www.w3.org/2000/svg" width="1225" height="705" viewBox="0 0 1225 705"><rect width="177" height="39.789" x="7" y="660.14" fill="#3D176E" rx="2.5" ry="2.5" style="stroke:#000d19;stroke-width:.5"/><circle cx="22" cy="680.034" r="11" fill="#ADD1B2" style="stroke:#181818;stroke-width:1"/><path d="M24.969 685.675q-.578.297-1.219.438-.64.156-1.344.156-2.5 0-3.828-1.64-1.312-1.657-1.312-4.782t1.312-4.781q1.328-1.657 3.828-1.657.703 0 1.344.157.656.156 1.219.453v2.719q-.625-.579-1.219-.844-.594-.281-1.219-.281-1.343 0-2.031 1.078-.687 1.062-.687 3.156t.687 3.172q.688 1.062 2.031 1.062.625 0 1.219-.265.594-.282 1.219-.86z"/><text x="41" y="685.92" fill="#D9B8FF" font-family="Helvetica" font-size="17" textLength="135">aws_eks_cluster</text><rect width="395" height="39.789" x="219" y="660.14" fill="#3D176E" rx="2.5" ry="2.5" style="stroke:#000d19;stroke-width:.5"/><circle cx="234" cy="680.034" r="11" fill="#ADD1B2" style="stroke:#181818;stroke-width:1"/><path d="M236.969 685.675q-.578.297-1.219.438-.64.156-1.344.156-2.5 0-3.828-1.64-1.312-1.657-1.312-4.782t1.312-4.781q1.328-1.657 3.828-1.657.703 0 1.344.157.656.156 1.219.453v2.719q-.625-.579-1.219-.844-.594-.281-1.219-.281-1.344 0-2.031 1.078-.687 1.062-.687 3.156t.687 3.172q.688 1.062 2.031 1.062.625 0 1.219-.265.594-.282 1.219-.86z"/><text x="253" y="685.92" fill="#D9B8FF" font-family="Helvetica" font-size="17" textLength="353">azure_container_service_managed_cluster</text><rect width="311" height="39.789" x="649" y="660.14" fill="#3D176E" rx="2.5" ry="2.5" style="stroke:#000d19;stroke-width:.5"/><circle cx="664" cy="680.034" r="11" fill="#ADD1B2" style="stroke:#181818;stroke-width:1"/><path d="M666.969 685.675q-.578.297-1.219.438-.64.156-1.344.156-2.5 0-3.828-1.64-1.312-1.657-1.312-4.782t1.312-4.781q1.328-1.657 3.828-1.657.703 0 1.344.157.656.156 1.219.453v2.719q-.625-.579-1.219-.844-.594-.281-1.219-.281-1.343 0-2.031 1.078-.687 1.062-.687 3.156t.687 3.172q.688 1.062 2.031 1.062.625 0 1.219-.265.594-.282 1.219-.86z"/><text x="683" y="685.92" fill="#D9B8FF" font-family="Helvetica" font-size="17" textLength="269">digitalocean_kubernetes_cluster</text><rect width="223" height="39.789" x="995" y="660.14" fill="#3D176E" rx="2.5" ry="2.5" style="stroke:#000d19;stroke-width:.5"/><circle cx="1010" cy="680.034" r="11" fill="#ADD1B2" style="stroke:#181818;stroke-width:1"/><path d="M1012.969 685.675q-.578.297-1.219.438-.64.156-1.344.156-2.5 0-3.828-1.64-1.312-1.657-1.312-4.782t1.312-4.781q1.328-1.657 3.828-1.657.703 0 1.344.157.656.156 1.219.453v2.719q-.625-.579-1.219-.844-.594-.281-1.219-.281-1.343 0-2.031 1.078-.687 1.062-.687 3.156t.687 3.172q.688 1.062 2.031 1.062.625 0 1.219-.265.594-.282 1.219-.86z"/><text x="1029" y="685.92" fill="#D9B8FF" font-family="Helvetica" font-size="17" textLength="181">gcp_container_cluster</text><rect width="366" height="100.383" x="427.5" y="438.76" fill="#3D176E" rx="2.5" ry="2.5" style="stroke:#000d19;stroke-width:.5"/><circle cx="442.5" cy="458.654" r="11" fill="#ADD1B2" style="stroke:#181818;stroke-width:1"/><path d="M445.469 464.295q-.578.297-1.219.438-.64.156-1.344.156-2.5 0-3.828-1.64-1.312-1.657-1.312-4.782t1.312-4.781q1.328-1.656 3.828-1.656.703 0 1.344.156.656.156 1.219.453v2.719q-.625-.579-1.219-.844-.594-.281-1.219-.281-1.344 0-2.031 1.078-.687 1.062-.687 3.156t.687 3.172q.688 1.062 2.031 1.062.625 0 1.219-.265.594-.281 1.219-.86z"/><text x="461.5" y="464.54" fill="#D9B8FF" font-family="Helvetica" font-size="17" textLength="324">managed_kubernetes_cluster_provider</text><path d="M428.5 478.549h364" style="stroke:#000d19;stroke-width:.5"/><text x="438.5" y="500.544" fill="#D9B8FF" font-family="sans-serif" font-size="14" font-weight="bold" textLength="70">endpoint</text><text x="508.5" y="500.544" fill="#D9B8FF" font-family="sans-serif" font-size="14" textLength="48">: string</text><text x="438.5" y="526.841" fill="#D9B8FF" font-family="sans-serif" font-size="14" font-weight="bold" textLength="59">version</text><text x="497.5" y="526.841" fill="#D9B8FF" font-family="sans-serif" font-size="14" textLength="48">: string</text><rect width="227" height="310.758" x="497" y="7" fill="#3D176E" rx="2.5" ry="2.5" style="stroke:#000d19;stroke-width:.5"/><circle cx="565.75" cy="26.895" r="11" fill="#ADD1B2" style="stroke:#181818;stroke-width:1"/><path d="M568.719 32.535q-.578.297-1.219.438-.64.156-1.344.156-2.5 0-3.828-1.64-1.312-1.657-1.312-4.782t1.312-4.781q1.328-1.656 3.828-1.656.703 0 1.344.156.656.156 1.219.453v2.719q-.625-.578-1.219-.844-.594-.281-1.219-.281-1.343 0-2.031 1.078-.687 1.062-.687 3.156t.687 3.172q.688 1.062 2.031 1.062.625 0 1.219-.265.594-.281 1.219-.86z"/><text x="591.25" y="32.78" fill="#D9B8FF" font-family="Helvetica" font-size="17" textLength="71">resource</text><path d="M498 46.789h225" style="stroke:#000d19;stroke-width:.5"/><text x="508" y="68.784" fill="#D9B8FF" font-family="sans-serif" font-size="14" font-weight="bold" textLength="29">age</text><text x="537" y="68.784" fill="#D9B8FF" font-family="sans-serif" font-size="14" textLength="66">: duration</text><text x="508" y="95.081" fill="#D9B8FF" font-family="sans-serif" font-size="14" font-weight="bold" textLength="43">atime</text><text x="551" y="95.081" fill="#D9B8FF" font-family="sans-serif" font-size="14" textLength="70">: datetime</text><text x="508" y="121.378" fill="#D9B8FF" font-family="sans-serif" font-size="14" font-weight="bold" textLength="43">ctime</text><text x="551" y="121.378" fill="#D9B8FF" font-family="sans-serif" font-size="14" textLength="70">: datetime</text><text x="508" y="147.675" fill="#D9B8FF" font-family="sans-serif" font-size="14" font-weight="bold" textLength="14">id</text><text x="522" y="147.675" fill="#D9B8FF" font-family="sans-serif" font-size="14" textLength="48">: string</text><text x="508" y="173.972" fill="#D9B8FF" font-family="sans-serif" font-size="14" font-weight="bold" textLength="33">kind</text><text x="541" y="173.972" fill="#D9B8FF" font-family="sans-serif" font-size="14" textLength="48">: string</text><text x="508" y="200.269" fill="#D9B8FF" font-family="sans-serif" font-size="14" font-weight="bold" textLength="90">last_access</text><text x="598" y="200.269" fill="#D9B8FF" font-family="sans-serif" font-size="14" textLength="66">: duration</text><text x="508" y="226.565" fill="#D9B8FF" font-family="sans-serif" font-size="14" font-weight="bold" textLength="90">last_update</text><text x="598" y="226.565" fill="#D9B8FF" font-family="sans-serif" font-size="14" textLength="66">: duration</text><text x="508" y="252.862" fill="#D9B8FF" font-family="sans-serif" font-size="14" font-weight="bold" textLength="48">mtime</text><text x="556" y="252.862" fill="#D9B8FF" font-family="sans-serif" font-size="14" textLength="70">: datetime</text><text x="508" y="279.159" fill="#D9B8FF" font-family="sans-serif" font-size="14" font-weight="bold" textLength="43">name</text><text x="551" y="279.159" fill="#D9B8FF" font-family="sans-serif" font-size="14" textLength="48">: string</text><text x="508" y="305.456" fill="#D9B8FF" font-family="sans-serif" font-size="14" font-weight="bold" textLength="34">tags</text><text x="542" y="305.456" fill="#D9B8FF" font-family="sans-serif" font-size="14" textLength="171">: dictionary[string, string]</text><path fill="none" d="M458.293 545.834 148.29 659.65m326.9-120.02-18.965.571 4.136 11.265z" style="stroke:#ffaf37;stroke-width:2"/><g fill="none"><path d="M546.639 552.193c-40.42 39.39-81.819 79.747-110.489 107.697" style="stroke:#ffaf37;stroke-width:2"/><path d="m559.53 539.63-17.079 8.266 8.375 8.594z" style="stroke:#ffaf37;stroke-width:2"/></g><g fill="none"><path d="M674.361 552.193c40.42 39.39 81.819 79.747 110.489 107.697" style="stroke:#ffaf37;stroke-width:2"/><path d="m661.47 539.63 8.704 16.86 8.375-8.594z" style="stroke:#ffaf37;stroke-width:2"/></g><path fill="none" d="M757.64 546.042c103.04 39.28 224.55 85.598 298.02 113.608M740.82 539.63l14.682 12.018 4.275-11.213zM610.5 336.06v102.36m0-120.36-6 18h12z" style="stroke:#ffaf37;stroke-width:2"/></svg>
